X:12
T:Iniscealtra
R:reel
C:Paddy O'Brien
D:Paul Brock
B:The Compositions of Paddy O'Brien
S:Clare FM
Z:psc -  http://www.cranfordpub.com
L:1/8
Q:333
M:C|
K:D
E|D2 FA BAFA|defd Beec|dcdB A2 FA|BGEF GEFE|
D2 FA BAFA|defd e2 fg|agfg eBdB|ABde fdd:|
|:c|d2 fd Adfa|bgef gefe|dcdB A2 FA|BA (3(Bcd) egfe|
defd Adfa|bgef g2 ag|fedf eBdB|ABde fdd:|
